svg/fluentui-system-icons/ic_fluent_smartwatch_24_filled.svg

<svg width="24" height="24" viewBox="0 0 24 24" fill="none" xmlns="http://www.w3.org/2000/svg">
<path d="M9.5 2C8.39543 2 7.5 2.89543 7.5 4V5.29076C7.96322 5.10325 8.46955 5 9 5H15C15.5304 5 16.0368 5.10325 16.5 5.29076V4C16.5 2.89543 15.6046 2 14.5 2H9.5ZM9 6C7.34315 6 6 7.34315 6 9V15C6 16.6569 7.34315 18 9 18H15C16.6569 18 18 16.6569 18 15V13C18.5523 13 19 12.5523 19 12V11C19 10.4477 18.5523 10 18 10V9C18 7.34315 16.6569 6 15 6H9ZM9 19C8.46955 19 7.96322 18.8967 7.5 18.7092V20C7.5 21.1046 8.39543 22 9.5 22H14.5C15.6046 22 16.5 21.1046 16.5 20V18.7092C16.0368 18.8967 15.5305 19 15 19H9Z" fill="#212121"/>
</svg>

<svg xmlns="http://www.w3.org/2000/svg" width="24" height="24"><path d="M9.5 2a2 2 0 0 0-2 2v1.29C7.963 5.104 8.47 5 9 5h6a4 4 0 0 1 1.5.29V4a2 2 0 0 0-2-2h-5ZM9 6a3 3 0 0 0-3 3v6a3 3 0 0 0 3 3h6a3 3 0 0 0 3-3v-2a1 1 0 0 0 1-1v-1a1 1 0 0 0-1-1V9a3 3 0 0 0-3-3H9Zm0 13a4 4 0 0 1-1.5-.29V20a2 2 0 0 0 2 2h5a2 2 0 0 0 2-2v-1.29A4 4 0 0 1 15 19H9Z"/></svg>
